src/gui/emoticons/wine.svg

<svg xmlns="http://www.w3.org/2000/svg" xmlns:xlink="http://www.w3.org/1999/xlink" width="16pt" height="16pt" version="1.1" viewBox="0 0 16 16"><defs><linearGradient id="linear0" x1="30.848" x2="95.211" y1="45.61" y2="45.61" gradientTransform="matrix(0.125,0,0,0.125,0,0)" gradientUnits="userSpaceOnUse"><stop offset="0" style="stop-color:#bdd4d6;stop-opacity:1"/><stop offset=".507" style="stop-color:#d4e9ec;stop-opacity:1"/><stop offset="1" style="stop-color:#b8d0d2;stop-opacity:1"/></linearGradient><linearGradient id="linear1" x1="61.956" x2="61.956" y1="123.57" y2="79.948" gradientTransform="matrix(0.125,0,0,0.125,0,0)" gradientUnits="userSpaceOnUse"><stop offset="0" style="stop-color:#d4e9ec;stop-opacity:1"/><stop offset="1" style="stop-color:#b8d0d2;stop-opacity:1"/></linearGradient><linearGradient id="linear2" x1="62.965" x2="62.965" y1="75.174" y2="39.561" gradientTransform="matrix(0.125,0,0,0.125,0,0)" gradientUnits="userSpaceOnUse"><stop offset="0" style="stop-color:#94271d;stop-opacity:1"/><stop offset=".008" style="stop-color:#95281e;stop-opacity:1"/><stop offset=".17" style="stop-color:#a93127;stop-opacity:1"/><stop offset=".356" style="stop-color:#b7372d;stop-opacity:1"/><stop offset=".587" style="stop-color:#bf3b31;stop-opacity:1"/><stop offset="1" style="stop-color:#c13c32;stop-opacity:1"/></linearGradient><linearGradient id="linear3" x1="62.994" x2="62.994" y1="19.086" y2="5.978" gradientTransform="matrix(0.125,0,0,0.125,0,0)" gradientUnits="userSpaceOnUse"><stop offset="0" style="stop-color:#d4e9ec;stop-opacity:1"/><stop offset="1" style="stop-color:#b8d0d2;stop-opacity:1"/></linearGradient><filter id="alpha" width="100%" height="100%" x="0%" y="0%" filterUnits="objectBoundingBox"><feColorMatrix in="SourceGraphic" type="matrix" values="0 0 0 0 1 0 0 0 0 1 0 0 0 0 1 0 0 0 1 0"/></filter><mask id="mask0"><g filter="url(#alpha)"><rect width="16" height="16" x="0" y="0" style="fill:#000;fill-opacity:.6;stroke:none"/></g></mask><clipPath id="clip1"><rect width="16" height="16"/></clipPath><g id="surface6" clip-path="url(#clip1)"><path style="fill:none;stroke-width:3;stroke-linecap:round;stroke-linejoin:miter;stroke:#fff;stroke-opacity:1;stroke-miterlimit:10" d="M 50.375 117.9375 C 50.375 117.9375 56 120.46875 64.40625 119.65625" transform="matrix(0.125,0,0,0.125,0,0)"/></g><mask id="mask1"><g filter="url(#alpha)"><rect width="16" height="16" x="0" y="0" style="fill:#000;fill-opacity:.6;stroke:none"/></g></mask><clipPath id="clip2"><rect width="16" height="16"/></clipPath><g id="surface9" clip-path="url(#clip2)"><path style="stroke:none;fill-rule:nonzero;fill:#fff;fill-opacity:1" d="M 5.667969 2.1875 C 5.375 2.785156 4.816406 4.078125 4.765625 5.425781 C 4.757812 5.617188 4.886719 5.792969 5.074219 5.84375 L 5.433594 5.9375 C 5.675781 6.003906 5.925781 5.84375 5.964844 5.597656 C 6.074219 4.859375 6.339844 3.421875 6.804688 2.578125 C 6.332031 2.5 5.941406 2.367188 5.667969 2.1875 Z M 5.667969 2.1875"/></g></defs><g id="surface1"><path style="stroke:none;fill-rule:nonzero;fill:url(#linear0)" d="M 10.460938 1.359375 L 5.308594 1.359375 C 5.308594 1.359375 3.855469 3.703125 3.855469 6.367188 C 3.855469 9.996094 7.667969 10.042969 7.871094 10.042969 L 7.878906 10.042969 C 7.878906 10.042969 7.882812 10.042969 7.886719 10.042969 C 8.09375 10.042969 11.902344 9.996094 11.902344 6.367188 C 11.902344 3.703125 10.460938 1.359375 10.460938 1.359375 Z M 10.460938 1.359375"/><path style="stroke:none;fill-rule:nonzero;fill:url(#linear1)" d="M 9.019531 14.042969 C 8.648438 13.882812 8.234375 13.664062 8.234375 13.203125 C 8.234375 13.074219 8.234375 10.160156 8.25 10.039062 C 8.253906 10.03125 8.253906 10.027344 8.253906 10.023438 C 8.054688 10.042969 7.921875 10.042969 7.886719 10.042969 L 7.878906 10.042969 C 7.878906 10.042969 7.875 10.042969 7.867188 10.042969 C 7.824219 10.042969 7.582031 10.039062 7.246094 9.992188 C 7.25 10.015625 7.253906 10.039062 7.253906 10.058594 L 7.253906 13.113281 C 7.253906 13.257812 7.203125 13.386719 7.121094 13.5 C 6.898438 13.808594 6.507812 13.933594 6.175781 14.082031 C 5.953125 14.183594 5.398438 14.421875 5.433594 14.734375 C 5.472656 15.109375 6.132812 15.269531 6.417969 15.335938 C 6.765625 15.414062 7.125 15.441406 7.484375 15.441406 C 7.804688 15.441406 8.121094 15.421875 8.4375 15.394531 C 8.722656 15.375 9.015625 15.328125 9.292969 15.257812 C 9.492188 15.207031 9.980469 15.082031 10.046875 14.84375 C 10.167969 14.410156 9.292969 14.160156 9.019531 14.042969 Z M 9.019531 14.042969"/><path style="stroke:none;fill-rule:nonzero;fill:url(#linear2)" d="M 10.722656 5.550781 C 10.03125 5.804688 9.34375 5.765625 8.652344 5.542969 C 7.984375 5.324219 7.339844 5.039062 6.640625 4.960938 C 6.1875 4.914062 5.726562 4.960938 5.300781 5.136719 C 4.988281 5.265625 4.675781 5.34375 4.5 5.65625 C 4.355469 5.914062 4.425781 6.378906 4.460938 6.660156 C 4.535156 7.207031 4.726562 7.730469 5.0625 8.160156 C 5.582031 8.816406 6.367188 9.171875 7.152344 9.320312 C 7.390625 9.363281 7.632812 9.394531 7.875 9.394531 C 8.082031 9.398438 8.289062 9.371094 8.488281 9.335938 C 9.253906 9.210938 10.019531 8.898438 10.558594 8.308594 C 10.910156 7.929688 11.136719 7.449219 11.246094 6.9375 C 11.316406 6.601562 11.335938 6.25 11.324219 5.90625 C 11.316406 5.75 11.296875 5.660156 11.179688 5.542969 C 11.085938 5.457031 10.882812 5.492188 10.722656 5.550781 Z M 10.722656 5.550781"/><path style="stroke:none;fill-rule:nonzero;fill:#8f261b;fill-opacity:1" d="M 10.394531 5.652344 C 7.960938 6.09375 5.945312 6.832031 4.816406 6.257812 C 4.003906 5.847656 4.726562 5.207031 5.457031 4.996094 C 7.230469 4.488281 9.78125 5.703125 10.394531 5.652344 Z M 10.394531 5.652344"/><path style="stroke:none;fill-rule:nonzero;fill:#b8d0d0;fill-opacity:1" d="M 7.882812 0.472656 C 6.4375 0.472656 5.269531 0.867188 5.269531 1.566406 C 5.269531 2.269531 6.441406 2.660156 7.882812 2.660156 C 9.328125 2.660156 10.5 2.269531 10.5 1.566406 C 10.5 0.863281 9.328125 0.472656 7.882812 0.472656 Z M 7.882812 0.472656"/><path style="stroke:none;fill-rule:nonzero;fill:url(#linear3)" d="M 7.875 0.746094 C 6.660156 0.746094 5.675781 1.042969 5.675781 1.566406 C 5.675781 2.09375 6.660156 2.386719 7.875 2.386719 C 9.085938 2.386719 10.074219 2.09375 10.074219 1.566406 C 10.074219 1.042969 9.089844 0.746094 7.875 0.746094 Z M 7.875 0.746094"/><use mask="url(#mask0)" xlink:href="#surface6"/><use mask="url(#mask1)" xlink:href="#surface9"/></g></svg>

<svg xmlns="http://www.w3.org/2000/svg" xmlns:xlink="http://www.w3.org/1999/xlink" width="16pt" height="16pt" viewBox="0 0 16 16"><defs><linearGradient id="d" x1="30.848" x2="95.211" y1="45.61" y2="45.61" gradientTransform="scale(.125)" gradientUnits="userSpaceOnUse"><stop offset="0" style="stop-color:#bdd4d6;stop-opacity:1"/><stop offset=".507" style="stop-color:#d4e9ec;stop-opacity:1"/><stop offset="1" style="stop-color:#b8d0d2;stop-opacity:1"/></linearGradient><linearGradient id="e" x1="61.956" x2="61.956" y1="123.57" y2="79.948" gradientTransform="scale(.125)" gradientUnits="userSpaceOnUse"><stop offset="0" style="stop-color:#d4e9ec;stop-opacity:1"/><stop offset="1" style="stop-color:#b8d0d2;stop-opacity:1"/></linearGradient><linearGradient id="f" x1="62.965" x2="62.965" y1="75.174" y2="39.561" gradientTransform="scale(.125)" gradientUnits="userSpaceOnUse"><stop offset="0" style="stop-color:#94271d;stop-opacity:1"/><stop offset=".008" style="stop-color:#95281e;stop-opacity:1"/><stop offset=".17" style="stop-color:#a93127;stop-opacity:1"/><stop offset=".356" style="stop-color:#b7372d;stop-opacity:1"/><stop offset=".587" style="stop-color:#bf3b31;stop-opacity:1"/><stop offset="1" style="stop-color:#c13c32;stop-opacity:1"/></linearGradient><linearGradient id="g" x1="62.994" x2="62.994" y1="19.086" y2="5.978" gradientTransform="scale(.125)" gradientUnits="userSpaceOnUse"><stop offset="0" style="stop-color:#d4e9ec;stop-opacity:1"/><stop offset="1" style="stop-color:#b8d0d2;stop-opacity:1"/></linearGradient><clipPath id="b"><path d="M0 0h16v16H0z"/></clipPath><clipPath id="c"><path d="M0 0h16v16H0z"/></clipPath><mask id="h"><g filter="url(#a)"><path d="M0 0h16v16H0z" style="fill:#000;fill-opacity:.6;stroke:none"/></g></mask><mask id="j"><g filter="url(#a)"><path d="M0 0h16v16H0z" style="fill:#000;fill-opacity:.6;stroke:none"/></g></mask><g id="i" clip-path="url(#b)"><path d="M50.375 117.938s5.625 2.53 14.031 1.718" style="fill:none;stroke-width:3;stroke-linecap:round;stroke-linejoin:miter;stroke:#fff;stroke-opacity:1;stroke-miterlimit:10" transform="scale(.125)"/></g><g id="k" clip-path="url(#c)"><path d="M5.668 2.188c-.293.597-.852 1.89-.902 3.238a.42.42 0 0 0 .308.418l.36.093a.426.426 0 0 0 .53-.34c.11-.738.376-2.175.84-3.019-.472-.078-.863-.21-1.136-.39m0 0" style="stroke:none;fill-rule:nonzero;fill:#fff;fill-opacity:1"/></g><filter id="a" width="100%" height="100%" x="0%" y="0%" filterUnits="objectBoundingBox"><feColorMatrix in="SourceGraphic" values="0 0 0 0 1 0 0 0 0 1 0 0 0 0 1 0 0 0 1 0"/></filter></defs><path d="M10.46 1.36H5.31S3.855 3.702 3.855 6.366c0 3.63 3.813 3.676 4.016 3.676h.016c.207 0 4.015-.047 4.015-3.676 0-2.664-1.441-5.008-1.441-5.008m0 0" style="stroke:none;fill-rule:nonzero;fill:url(#d)"/><path d="M9.02 14.043c-.372-.16-.786-.379-.786-.84 0-.129 0-3.043.016-3.164q.005-.011.004-.016c-.2.02-.332.02-.367.02h-.02c-.043 0-.285-.004-.62-.05a.4.4 0 0 1 .007.066v3.054c0 .145-.05.274-.133.387-.223.309-.613.434-.945.582-.223.102-.778.34-.742.652.039.375.699.536.984.602.348.078.707.105 1.066.105.32 0 .637-.02.954-.046.285-.02.578-.067.855-.137.2-.051.687-.176.754-.414.121-.434-.754-.684-1.027-.801m0 0" style="stroke:none;fill-rule:nonzero;fill:url(#e)"/><path d="M10.723 5.55c-.692.255-1.38.216-2.07-.007-.669-.219-1.313-.504-2.012-.582-.453-.047-.914 0-1.34.176-.313.129-.625.207-.801.52-.145.257-.074.722-.04 1.003.075.547.267 1.07.603 1.5.519.656 1.304 1.012 2.09 1.16.238.043.48.075.722.075a3 3 0 0 0 .613-.06c.766-.124 1.532-.437 2.07-1.026.352-.38.579-.86.688-1.371.07-.336.09-.688.078-1.032-.008-.156-.027-.246-.144-.363-.094-.086-.297-.05-.457.008m0 0" style="stroke:none;fill-rule:nonzero;fill:url(#f)"/><path d="M10.395 5.652c-2.434.442-4.45 1.18-5.579.606-.812-.41-.09-1.051.641-1.262 1.773-.508 4.324.707 4.938.656m0 0" style="stroke:none;fill-rule:nonzero;fill:#8f261b;fill-opacity:1"/><path d="M7.883.473C6.438.473 5.27.867 5.27 1.566c0 .704 1.171 1.094 2.613 1.094 1.445 0 2.617-.39 2.617-1.094C10.5.863 9.328.473 7.883.473m0 0" style="stroke:none;fill-rule:nonzero;fill:#b8d0d0;fill-opacity:1"/><path d="M7.875.746c-1.215 0-2.2.297-2.2.82 0 .528.985.82 2.2.82 1.21 0 2.2-.292 2.2-.82 0-.523-.985-.82-2.2-.82m0 0" style="stroke:none;fill-rule:nonzero;fill:url(#g)"/><use xlink:href="#i" mask="url(#h)"/><use xlink:href="#k" mask="url(#j)"/></svg>
